X:1
T:Title
%%score { ( 1 3 4 ) | ( 2 5 ) }
L:1/8
M:4/4
K:Bb
V:1 treble nm="Grand Piano"
V:3 treble 
V:4 treble 
V:2 bass 
V:5 bass 
V:1
 z4 z2[Q:1/4=94] [B,D]>[CE] |[M:15/16] [DF]>[B,D][DB]-[DB]/[DF]/[Fd]/-[Fd][Ec]<[DB] | %2
[M:1/16] [DF]/ |[M:3/4] [B,EG]>[B,FA] [B,GB]>[B,EG] [B,DF]2 |[M:1/4][K:bass] [F,B,D]>[F,CE] | %5
[M:15/16][K:treble] [B,DF]>[F,B,D][DB]-[DB]/[DF]/[Fd]/-[Fd][Ec]<[DB] |[M:1/16] G/ | %7
[M:4/4] z4 c2 z2 | [Fd]>[Fd] [Fd]>[Ec] [Ec]>[DB] [DB]>[DF] | %9
[M:9/8] [EG]>[EG][GB]- [GB]/[GB]/ [Ge]2- [Ge][Ge]>[Ge] |[M:4/4] [Fd]>[Fd] [FB]>F G>[FA] [FB]>[Gc] | %11
[M:3/4] d>d c>c [B,DB]2 |[M:1/4] F>F |[M:4/4] [Fd]6 z2 |[M:3/4] [B,DF]>[DF] [B,DF]>[B,DF] [B,DF]2 | %15
[M:1/4] [B,F]2 |[M:4/4] z2 A,2 (3z FG (3[EA]Bc | z2 [Fd]4 z2 | [Fd]6 z2 | %19
[M:3/4] [B,DF]>[DF] [B,DF]>[B,DF] [DF]2 |[M:1/4] [DF]>[DF] | %21
[M:4/4] [EG]>[FA] [FB]>c d>[_Af] [Ge]>[Gc] |[M:3/4] B>B A>A [DB]2 |] %23
V:2
 z4 z2 [B,,F,]>[B,,F,] | %1
[M:15/16] [B,,B,]>[B,,F,][B,,B,]-[B,,B,]/[B,,B,]/[B,,B,]/-[B,,B,][B,,B,]<[B,,B,] | %2
[M:1/16] [B,,B,]/ |[M:3/4] E,>E, E,>E, B,,2 |[M:1/4] B,,>B,, | %5
[M:15/16] B,,>B,,[B,,B,]-[B,,B,]/[B,,B,]/[B,,B,]/-[B,,B,][B,,B,]<[B,,B,] | %6
[M:1/16][K:treble] [B,DF]/ |[M:4/4] [A,CF]>[A,CF] [G,B,=E]>[G,B,E][K:bass] [F,A,F]2 [D,B,]>[C,A,] | %8
 [B,,B,]>[B,,B,] [B,,B,]>[B,,B,] [B,,B,]>[B,,B,] [B,,B,]>[B,,B,] | %9
[M:9/8] [E,B,]>[E,B,][E,B,]- [E,B,]/[E,B,]/ [E,B,]2- [E,B,][E,B,]>[E,B,] | %10
[M:4/4] [B,,B,]>[B,,B,] [D,B,]>[D,B,] [E,B,E]>[C,C] [D,B,]>[E,B,] | %11
[M:3/4] [F,B,F]>[F,B,F] [F,A,E]>[F,A,E] B,,2 |[M:1/4] F,>F, | %13
[M:4/4] [B,,B,]2 F,,2 z z/ E/ z z/ E/ |[M:3/4] B,,>B, F,>D, B,,2 |[M:1/4] D,2 | %16
[M:4/4] [C,A,]2 F,,2 (3:2:2z2 E (3z DE | [B,,B,]>B, A,>G, F,>E, [D,D]>[C,C] | %18
 [B,,B,]2 F,,2 z z/ E/ z z/ E/ |[M:3/4] B,,>B, F,>D, [B,,B,]2 |[M:1/4] [B,,B,]>[B,,B,] | %21
[M:4/4] [E,B,]>[C,C] [D,B,]>[K:treble][F,A,F] [B,F]>[K:bass][D,B,] [E,B,]>[E,E] | %22
[M:3/4] [F,DF]>[F,DF] [F,CE]>[F,CE] [B,,B,]2 |] %23
V:3
 x8 |[M:15/16] x15/2 |[M:1/16] x/ |[M:3/4] x6 |[M:1/4][K:bass] x2 |[M:15/16][K:treble] x15/2 | %6
[M:1/16] x/ |[M:4/4] A>A B>B z z/ E,/ F>F | x8 |[M:9/8] x9 |[M:4/4] x8 |[M:3/4] x6 |[M:1/4] x2 | %13
[M:4/4] z2 B,2 z z/ c/ [DB]>G |[M:3/4] x6 |[M:1/4] x2 |[M:4/4] [Fe]6 A,2 | [Fd]2 z2 z z/ E/ F>F | %18
 z2 B,2 z z/ c/ [DB]>G |[M:3/4] x6 |[M:1/4] x2 |[M:4/4] x8 |[M:3/4] x6 |] %23
V:4
 x8 |[M:15/16] x15/2 |[M:1/16] x/ |[M:3/4] x6 |[M:1/4][K:bass] x2 |[M:15/16][K:treble] x15/2 | %6
[M:1/16] x/ |[M:4/4] x8 | x8 |[M:9/8] x9 |[M:4/4] x8 |[M:3/4] x6 |[M:1/4] x2 |[M:4/4] z4 B,2 B,2 | %14
[M:3/4] x6 |[M:1/4] x2 |[M:4/4] z4 A,2 z2 | x8 | z4 B,2 B,2 |[M:3/4] x6 |[M:1/4] x2 |[M:4/4] x8 | %22
[M:3/4] x6 |] %23
V:5
 x8 |[M:15/16] x15/2 |[M:1/16] x/ |[M:3/4] x6 |[M:1/4] x2 |[M:15/16] x15/2 |[M:1/16][K:treble] x/ | %7
[M:4/4] x4[K:bass] x4 | x8 |[M:9/8] x9 |[M:4/4] x8 |[M:3/4] x6 |[M:1/4] x2 |[M:4/4] z4 B,,2 F,,2 | %14
[M:3/4] x6 |[M:1/4] x2 |[M:4/4] z4 C,2 F,,2 | x8 | z4 B,,2 F,,2 |[M:3/4] x6 |[M:1/4] x2 | %21
[M:4/4] x7/2[K:treble] x2[K:bass] x5/2 |[M:3/4] x6 |] %23

